img/list-marker-3@35px.svg

<?xml version="1.0" encoding="UTF-8"?>
<svg width="24px" height="24px" viewBox="0 0 24 24" version="1.1" xmlns="http://www.w3.org/2000/svg" xmlns:xlink="http://www.w3.org/1999/xlink">
    <!-- Generator: Sketch 64 (93537) - https://sketch.com -->
    <title>list-marker-3@35px</title>
    <desc>Created with Sketch.</desc>
    <g id="list-marker-3@35px" stroke="none" stroke-width="1" fill="none" fill-rule="evenodd">
        <path d="M12,4 C16.418278,4 20,7.581722 20,12 C20,16.418278 16.418278,20 12,20 C7.581722,20 4,16.418278 4,12 C4,7.581722 7.581722,4 12,4 Z M12.0872727,8.36363636 C11.0312727,8.36363636 10.1149091,8.80872727 10.0887273,9.856 C10.1847273,10.0218182 10.368,10.1178182 10.5774545,10.1178182 C10.8829091,10.1178182 11.1534545,9.96945455 11.232,9.54181818 L11.3978182,8.68654545 C11.5025455,8.66909091 11.5985455,8.66036364 11.6858182,8.66036364 C12.3578182,8.66036364 12.7418182,9.09672727 12.7418182,9.94327273 C12.7418182,10.912 12.2356364,11.3483636 11.4589091,11.3483636 L11.1621818,11.3483636 L11.1621818,11.6887273 L11.5025455,11.6887273 C12.3927273,11.6887273 12.8727273,12.1861818 12.8727273,13.1461818 C12.8727273,14.1236364 12.3752727,14.6123636 11.4676364,14.6123636 C11.3454545,14.6123636 11.2494545,14.6036364 11.1447273,14.5774545 L11.0050909,13.7221818 C10.9265455,13.1374545 10.7083636,12.9716364 10.3592727,12.9716364 C10.1323636,12.9716364 9.90545455,13.0850909 9.81818182,13.3643636 C9.89672727,14.3418182 10.5949091,14.9178182 11.9214545,14.9178182 C13.4138182,14.9178182 14.3214545,14.1847273 14.3214545,13.1287273 C14.3214545,12.2821818 13.8414545,11.6712727 12.48,11.4705455 C13.6843636,11.2349091 14.1294545,10.6501818 14.1294545,9.90836364 C14.1294545,9.00072727 13.4749091,8.36363636 12.0872727,8.36363636 Z" id="Combined-Shape" fill="#5C7D7B"></path>
    </g>
</svg>

<svg width="24" height="24" xmlns="http://www.w3.org/2000/svg"><path d="M12 4a8 8 0 110 16 8 8 0 010-16zm.087 4.364c-1.056 0-1.972.445-1.998 1.492a.55.55 0 00.488.262c.306 0 .576-.149.655-.576l.166-.855c.105-.018.2-.027.288-.027.672 0 1.056.437 1.056 1.283 0 .969-.506 1.405-1.283 1.405h-.297v.34h.34c.89 0 1.37.498 1.37 1.458 0 .978-.497 1.466-1.404 1.466-.123 0-.219-.008-.323-.035l-.14-.855c-.078-.585-.297-.75-.646-.75a.54.54 0 00-.54.392c.078.978.776 1.554 2.102 1.554 1.493 0 2.4-.733 2.4-1.79 0-.846-.48-1.457-1.841-1.657 1.204-.236 1.65-.82 1.65-1.563 0-.907-.655-1.544-2.043-1.544z" fill="#5C7D7B" fill-rule="evenodd"/></svg>
